X: 25635
T: Martin Hunter's
R: reel
M: 4/4
K: Gmajor
|:GBBG ABGE|DEGA Bded|egg/g/g abag|egdB ABGE|
DBBG ABGE|DEGA Bded|egg/g/g abge|1 dBAB G4:|2 dBAB G2GF||
|:EGBG Fdd/d/d|egbg fBB/B/B|cAA/A/A BAGB|AFF/F/F dBcA|
GGBG ABGE|DEGA Bded|egg/g/g abge|1 dBAB G2GF:|2 dBAB G4||

